icons/svg/blackberry.svg

﻿<?xml version="1.0" encoding="utf-8"?>
<!DOCTYPE svg PUBLIC "-//W3C//DTD SVG 1.1//EN" "http://www.w3.org/Graphics/SVG/1.1/DTD/svg11.dtd">
<svg xmlns="http://www.w3.org/2000/svg" xmlns:xlink="http://www.w3.org/1999/xlink" version="1.1" baseProfile="full" width="24" height="24" viewBox="0 0 24.00 24.00" enable-background="new 0 0 24.00 24.00" xml:space="preserve">
	<path fill="#000000" fill-opacity="1" stroke-width="0.2" stroke-linejoin="round" d="M 5.44828,10.2759C 6.40049,10.2759 7.51724,11.0478 7.51724,12C 7.51724,12.9522 6.40049,13.7241 5.44828,13.7241L 2,13.7241L 2.68966,10.2759L 5.44828,10.2759 Z M 6.13793,4.75863C 7.09015,4.75863 8.2069,5.53055 8.2069,6.48276C 8.2069,7.43497 7.09015,8.20689 6.13793,8.20689L 2.68966,8.2069L 3.37931,4.75862L 6.13793,4.75863 Z M 13.0345,4.75863C 13.9867,4.75863 15.1034,5.53054 15.1034,6.48276C 15.1034,7.43497 13.9867,8.20689 13.0345,8.20689L 9.4138,8.2069L 10.1034,4.75862L 13.0345,4.75863 Z M 12.3448,10.2759C 13.297,10.2759 14.4138,11.0478 14.4138,12C 14.4138,12.9522 13.297,13.7241 12.3448,13.7241L 8.72414,13.7241L 9.41379,10.2759L 12.3448,10.2759 Z M 10.9655,15.7931C 11.9177,15.7931 13.0345,16.565 13.0345,17.5172C 13.0345,18.4695 11.9177,19.2414 10.9655,19.2414L 7.51725,19.2414L 8.2069,15.7931L 10.9655,15.7931 Z M 18.5517,13.7241C 19.5039,13.7241 20.6207,14.4961 20.6207,15.4483C 20.6207,16.4005 19.5039,17.1724 18.5517,17.1724L 15.1035,17.1724L 15.7931,13.7241L 18.5517,13.7241 Z M 19.931,8.2069C 20.8832,8.2069 22,8.97881 22,9.93103C 22,10.8832 20.8832,11.6552 19.931,11.6552L 16.4828,11.6552L 17.1724,8.20689L 19.931,8.2069 Z "/>
</svg>

<svg xmlns="http://www.w3.org/2000/svg" version="1.1" baseProfile="full" width="24" height="24" viewBox="0 0 24.00 24.00" xml:space="preserve"><path fill="#000" fill-opacity="1" stroke-width=".2" stroke-linejoin="round" d="M5.448 10.276c.952 0 2.07.772 2.07 1.724s-1.118 1.724-2.07 1.724H2l.69-3.448h2.758zm.69-5.517c.952 0 2.07.77 2.07 1.723 0 .952-1.118 1.724-2.07 1.724H2.69l.69-3.448h2.758zm6.896 0c.953 0 2.07.77 2.07 1.723 0 .952-1.117 1.724-2.07 1.724h-3.62l.69-3.448h2.93zm-.69 5.516c.953 0 2.07.772 2.07 1.724s-1.117 1.724-2.07 1.724h-3.62l.69-3.448h2.93zm-1.378 5.517c.952 0 2.07.772 2.07 1.724-.002.953-1.118 1.724-2.07 1.724h-3.45l.69-3.447h2.76zm7.586-2.07c.952 0 2.07.773 2.07 1.725 0 .953-1.118 1.724-2.07 1.724h-3.448l.69-3.448h2.758zm1.38-5.516c.95 0 2.068.772 2.068 1.724 0 .953-1.117 1.725-2.07 1.725h-3.447l.69-3.448h2.758z"/></svg>
